X: 34320
T: Return From India, The
R: reel
M: 4/4
K: Amajor
|:dcBA cAce|dcBA GBEe|dcBA cAeA|fAgA aAAe:|
agae agae|dcBA GBBe|agae agae|fefg aAAe|
aAgA fAeA|dcBA GBed|cABc defg|agfg aAAe|

